202404-ahaslides-april/assets/images/3b.svg

<svg width="100" height="100" viewBox="0 0 100 100" fill="none" xmlns="http://www.w3.org/2000/svg">
<path d="M74.6128 77.5054L69.344 75.2688H31.7096L26.4407 77.5054C26.2111 77.6031 26.0226 77.7777 25.9075 77.9992C25.7925 78.2207 25.758 78.4753 25.8102 78.7194C25.8623 78.9634 25.9977 79.1818 26.1932 79.337C26.3887 79.4922 26.632 79.5745 26.8816 79.5699H74.1934C74.4411 79.5694 74.681 79.4835 74.8726 79.3265C75.0642 79.1696 75.1958 78.9514 75.2451 78.7087C75.2944 78.466 75.2584 78.2137 75.1432 77.9944C75.028 77.7752 74.8406 77.6024 74.6128 77.5054ZM83.8708 21.5054H17.2042C16.919 21.5054 16.6455 21.6187 16.4438 21.8203C16.2422 22.022 16.1289 22.2955 16.1289 22.5806V72.043C16.1289 72.3282 16.2422 72.6017 16.4438 72.8033C16.6455 73.005 16.919 73.1183 17.2042 73.1183H83.8708C84.156 73.1183 84.4295 73.005 84.6312 72.8033C84.8328 72.6017 84.9461 72.3282 84.9461 72.043V22.5806C84.9461 22.2955 84.8328 22.022 84.6312 21.8203C84.4295 21.6187 84.156 21.5054 83.8708 21.5054ZM50.5375 69.9785C50.0952 69.9785 49.6627 69.8473 49.2949 69.6016C48.9271 69.3558 48.6405 69.0065 48.4712 68.5978C48.3019 68.1891 48.2576 67.7395 48.3439 67.3056C48.4302 66.8718 48.6432 66.4732 48.956 66.1604C49.2688 65.8477 49.6673 65.6346 50.1012 65.5483C50.535 65.462 50.9847 65.5063 51.3934 65.6756C51.8021 65.8449 52.1514 66.1316 52.3971 66.4994C52.6429 66.8672 52.7741 67.2996 52.7741 67.7419C52.7712 68.3342 52.5347 68.9015 52.1159 69.3203C51.697 69.7391 51.1298 69.9757 50.5375 69.9785ZM82.7956 62.3656H43.0106V59.5699C43.0036 57.6004 43.4639 55.6573 44.3536 53.9003C45.2434 52.1432 46.5372 50.6223 48.1289 49.4624L53.301 45.6989C53.7549 46.2278 54.3222 46.6475 54.9608 46.9267C55.5993 47.206 56.2927 47.3376 56.9891 47.3118C59.3977 47.3118 61.2902 45.8925 61.2902 44.086C61.2902 42.2796 59.3977 40.8602 56.9891 40.8602C54.8386 40.8602 53.1289 41.9355 52.7633 43.4839L46.8601 47.7849C45.0051 49.1405 43.4954 50.9137 42.453 52.961C41.4106 55.0084 40.8649 57.2724 40.8601 59.5699V62.3656H18.2794V23.6559H82.7956V62.3656Z" fill="#2F68DC"/>
<path d="M56.9888 58.0647V59.14C56.9888 59.4252 57.1021 59.6987 57.3038 59.9003C57.5054 60.102 57.7789 60.2152 58.0641 60.2152H79.5695C79.8546 60.2152 80.1281 60.102 80.3298 59.9003C80.5315 59.6987 80.6447 59.4252 80.6447 59.14V58.0647C80.6459 55.5334 79.8349 53.0685 78.331 51.0323C76.8271 48.9961 74.7096 47.4962 72.2899 46.7529C74.266 44.5327 75.3867 41.6814 75.4512 38.7099C75.4512 33.3335 70.4619 33.3335 68.8168 33.3335C67.1716 33.3335 62.1824 33.3335 62.1824 38.7099C62.2469 41.6814 63.3676 44.5327 65.3437 46.7529C62.9239 47.4962 60.8065 48.9961 59.3026 51.0323C57.7987 53.0685 56.9877 55.5334 56.9888 58.0647ZM21.505 38.7099H40.8598C41.145 38.7099 41.4185 38.5966 41.6201 38.3949C41.8218 38.1933 41.9351 37.9198 41.9351 37.6346V26.8819C41.9351 26.5967 41.8218 26.3232 41.6201 26.1216C41.4185 25.9199 41.145 25.8066 40.8598 25.8066H21.505C21.2198 25.8066 20.9463 25.9199 20.7446 26.1216C20.543 26.3232 20.4297 26.5967 20.4297 26.8819V37.6346C20.4297 37.9198 20.543 38.1933 20.7446 38.3949C20.9463 38.5966 21.2198 38.7099 21.505 38.7099ZM33.7415 29.8066H34.5372L36.3544 31.8389C36.7252 32.249 37.0631 32.6877 37.3652 33.1507C37.2964 32.6016 37.2677 32.0481 37.2791 31.4948V29.8066H37.9673V33.8281H37.2254L35.4834 31.7851C35.0945 31.3624 34.7352 30.9133 34.4082 30.441C34.4082 30.9464 34.4619 31.4303 34.4619 32.097V33.8174H33.7738L33.7415 29.8066ZM31.7415 29.8066H32.4727V33.8281H31.7415V29.8066ZM24.9136 29.8066L25.5802 31.8389C25.7523 32.3443 25.9028 32.8389 25.9996 33.226C26.1241 32.7508 26.2786 32.2839 26.4619 31.8281L27.2146 29.8066H27.9566L28.6447 31.8497C28.8079 32.2982 28.9373 32.7582 29.0318 33.226C29.1501 32.7851 29.3114 32.3335 29.4835 31.8281L30.2254 29.8066H30.9781L29.3759 33.8281H28.6125L27.9566 31.7314C27.7957 31.305 27.6699 30.8663 27.5802 30.4195C27.4641 30.8666 27.3168 31.3049 27.1394 31.7314L26.3329 33.8281H25.5695L24.1394 29.8066H24.9136Z" fill="#2F68DC"/>
</svg>

<svg xmlns="http://www.w3.org/2000/svg" width="100" height="100" fill="none" viewBox="0 0 100 100">
  <path fill="#2F68DC" d="m74.613 77.505-5.269-2.236H31.71l-5.27 2.236a1.076 1.076 0 0 0 .442 2.065h47.311a1.075 1.075 0 0 0 .42-2.065Zm9.258-56H17.204a1.076 1.076 0 0 0-1.075 1.076v49.462a1.075 1.075 0 0 0 1.075 1.075h66.667a1.075 1.075 0 0 0 1.075-1.075V22.581a1.076 1.076 0 0 0-1.075-1.076ZM50.538 69.98a2.237 2.237 0 1 1 2.236-2.237 2.248 2.248 0 0 1-2.236 2.236Zm32.258-7.613H43.01V59.57a12.452 12.452 0 0 1 5.118-10.108L53.3 45.7a4.633 4.633 0 0 0 3.688 1.613c2.409 0 4.301-1.42 4.301-3.226s-1.892-3.226-4.3-3.226c-2.151 0-3.861 1.075-4.227 2.624l-5.903 4.3a14.636 14.636 0 0 0-6 11.786v2.796H18.28v-38.71h64.516v38.71Z"/>
  <path fill="#2F68DC" d="M56.989 58.065v1.075a1.075 1.075 0 0 0 1.075 1.075H79.57a1.075 1.075 0 0 0 1.075-1.075v-1.075a11.828 11.828 0 0 0-8.355-11.312 12.506 12.506 0 0 0 3.161-8.043c0-5.377-4.99-5.377-6.634-5.377-1.645 0-6.635 0-6.635 5.377a12.506 12.506 0 0 0 3.162 8.043 11.828 11.828 0 0 0-8.355 11.312ZM21.505 38.71H40.86a1.075 1.075 0 0 0 1.075-1.075V26.882a1.075 1.075 0 0 0-1.075-1.075H21.505a1.075 1.075 0 0 0-1.075 1.075v10.753a1.075 1.075 0 0 0 1.075 1.075Zm12.237-8.903h.795l1.817 2.032c.371.41.71.849 1.011 1.312a11.427 11.427 0 0 1-.086-1.656v-1.688h.688v4.021h-.742l-1.742-2.043a12.465 12.465 0 0 1-1.075-1.344c0 .505.054.99.054 1.656v1.72h-.688l-.032-4.01Zm-2 0h.73v4.021h-.73v-4.021Zm-6.828 0 .666 2.032c.172.505.323 1 .42 1.387.124-.475.279-.942.462-1.398l.753-2.021h.742l.688 2.043c.163.448.292.908.387 1.376.118-.44.28-.892.451-1.398l.742-2.021h.753l-1.602 4.021h-.764l-.655-2.097a8.397 8.397 0 0 1-.377-1.312 9.885 9.885 0 0 1-.44 1.312l-.807 2.097h-.763l-1.43-4.021h.774Z"/>
</svg>
